!!!id: 18xx:2822
!!!COM: Walczyński, Franciszek
!!!OTL: Cantantibus organis – Andantino
!!!PDT: 1898
!!!SMS-siglum: PL-KOZmzk
!!!SMS-shelfmark: mzk/m/346
!!!NIFC-rismID: 1001109276
!!!URL-scan: https://repozytorium.nifc.pl/islandora/object/pl-kozmzk%3A7453/datastream/PDF/view
!!!ONB-nifc:
!!!SMS-variant:
!!!SMS-altvar:
!!!OMD: Andantino.
**kern	**kern	**dynam
*part1	*part1	*part1
*staff2	*staff1	*
*	*I"Organo	*
*clefF4	*clefG2	*
*k[f#c#g#d#]	*k[f#c#g#d#]	*
*M2/4	*M2/4	*
=1	=1	=1
(8e\L	(4g#/	pp
8B\	.	.
8c#\	4a/	.
8d#\J	.	.
=2	=2	=2
8e\L	8g#\L	.
8d#\	8b\	.
8c#\	8ee\	.
8B\J	8dd#\J	.
=3	=3	=3
8A\L	8.cc#\L	.
16a\L	.	.
16g#\JJ	16b\Jk	.
8f#\L	8a\L	.
8e\J	8cc#\J	.
=4	=4	=4
8d#\L	4b\	.
8B\	.	.
8c#\	4a/)	.
8d#\J)	.	.
=5	=5	=5
(8e\L	(4g#/	.
8d#\	.	.
8c#\	8a/L	.
8B\J	8g#/J	.
=6	=6	=6
4A\	8f#/L	.
.	8g#/	.
4A#X\)	8f#/	.
.	8e/J)	.
=7	=7	=7
(8B\L	(>4d#/	.
8A\J	.	.
4G#\	8e/L	.
.	8B/J	.
=8	=8	=8
8A\L	4c#/	.
8G#\	.	.
8F#\	8d#/L	.
8E\J)	8c#/J	.
=9	=9	=9
(<8D#\L	4B/	.
8G#\	.	.
8A\	8c#/L	.
8B\J	8d#/J	.
=10	=10	=10
4G#\	8e/L	.
.	([8B</J	.
8F#\L	16B</LL]	.
.	16A</	.
8BB\J	16G#</	.
.	16A</JJ)	.
=11	=11	=11
!	!	!LO:HP:b=2
8.E\L	8.G#</L	<
16F#\Jk	16A</Jk	.
4G#\)	4B</)	[[
=12	=12	=12
!	!	!LO:DY:b=2
(<8F#'\L	2r	p
8BB'\	.	.
8A^\	.	.
16G#\L	.	.
16F#\JJ	.	.
=13	=13	=13
!!LO:PB:g=original
8G#'\L	2r	.
8E'\	.	.
8B^\	.	.
16A\L	.	.
16G#\JJ)	.	.
=14	=14	=14
(4A\	(>8f#'/L	.
.	8B'/	.
4F#\	8a^/	.
.	16g#/L	.
.	16f#/JJ	.
=15	=15	=15
4E\	8g#'/L	.
.	8e'/	.
8G#\L	8b^/	.
16A\L	16a/L	.
16B\JJ)	16g#/JJ)	.
=16	=16	=16
(8c#\L	(8ee\L	f
8B\	8dd#\	.
8A\	8cc#\	.
8G#\J	8b\J	.
=17	=17	=17
8F#\L)	[2a/)	.
(<16f#'\L	.	.
16e'\JJ	.	.
8d#\L	.	.
8c#\J	.	.
=18	=18	=18
2B#X\	8a/L]	.
.	(>8d#/	.
.	8e/	.
.	[8f#/J	.
=19	=19	=19
4.c#\	8f#/L]	.
.	16e/L	.
.	16d#/JJ	.
.	8e/L	.
8Bn\	8e#X/J	.
=20	=20	=20
2A#X\)	8f#/L	.
.	8c#/	.
.	8d#/	.
.	[8e/J	.
=21	=21	=21
(4.B\	8e/L]	>
.	16d#/L	.
.	16c#/JJ	.
.	4d#/)	]]
8An\)	.	.
=22	=22	=22
(4G#\	(>8e/L	p
.	8B/	.
8A\L	8c#/	.
8F#\J	8a/J	.
=23	=23	=23
16E\LL	16g#/LL	>
16F#\	16f#/	.
16G#\	16e/	.
16B\JJ	16d#/JJ	.
4E\)	4e/)	]
=24	=24	=24
(4AA/	(4ccn\	f
8BB/L	8b/L	.
8Cn/J	8a/J	.
=25	=25	=25
8E\L	4g#/	.
8B\	.	.
8A\	8f#/L	.
8G#\J	8e/J	.
=26	=26	=26
!!LO:LB:g=original
8F#\L	8d#/L	.
8G#\	8e/	.
8A\	8f#/	.
16B\L	8d#/J	.
16A\JJ	.	.
=27	=27	=27
8G#\L	8e/L	.
8B\J	8f#/J	.
8e\L	4g#/)	.
8dn\J)	.	.
=28	=28	=28
(4cn\	(4ee\	.
8B\L	8ddn\L	.
8A\J	8ccn\J	.
=29	=29	=29
8G#X\L	4b\	.
8g#\	.	.
8f#\	8a/L	.
8e\J	8g#/J	.
=30	=30	=30
4d#X\	8b/L	.
.	8f#/	.
4B\	8g#/	.
.	8a/J	.
=31	=31	=31
8e\L	8g#/L	<
8f#\J	8a/J	.
4g#\)	4b\)	[[
=32	=32	=32
8ee>\L	(8gg#/L	ff
8dd#>\	8ff#/	.
8cc#>\	8ee/	.
8b>\J	8dd#/J	.
=33	=33	=33
8a>\L	8ff#/L	>
8g#>\	8ee/	.
8f#>\	8dd#/	.
8e>\J	8cc#/J	.
=34	=34	=34
8d#>\L	8b/L	.
8c#>\	8a/	.
8B>\	8g#/	.
8A>\J	8f#/J	]]
=35	=35	=35
4G#\	8e/L	.
.	8B/	<
8A\L	8c#/	.
8B\J	8d#/J)	[[
=36	=36	=36
(<8G#\L	(>8e/L	pp
8F#\	8d#/	.
8E\	8c#/	.
8D#\J	8B/J	<
=37	=37	=37
8C#\L	8A</L	.
8BB\	8G#</	.
8AA\	8F#</	[
8AA#X\J	8E</J	>
=38	=38	=38
8BB\L	8G#</L	.
8C#\	8A</J	.
!	!LO:TX:b:i:t=rall.	!
8AAn\	4F#</	]]
8BB\J	.	.
=39	=39	=39
2EE;<\)	2E<;/)	.
==	==	==
*-	*-	*-
!!!system-decoration: {(s1,s2)}
!!!ENC: Kamil Watkowski
!!!END: 2021-08-09
!!!RDF**kern: > = above
!!!RDF**kern: < = below
